packages/core/src/svgs/zee.svg

<svg width="24" height="24" viewBox="0 0 24 24" fill="none" xmlns="http://www.w3.org/2000/svg">
<g clip-path="url(#clip0_31_21191)">
<path d="M0 0H24V24H0V0Z" fill="#1741C3"/>
<path fill-rule="evenodd" clip-rule="evenodd" d="M9.00004 12.0526V7.30401C8.21131 7.80755 7.56223 8.50178 7.11278 9.32254C6.66334 10.1433 6.42803 11.0641 6.42861 11.9999C6.42861 13.7052 7.19447 15.2313 8.40089 16.253L8.46175 16.2037C10.9192 14.1873 13.5018 12.068 13.9518 11.7449C14.4523 11.3849 14.9838 11.6407 15 11.957V16.6953C15.7887 16.1918 16.4377 15.4976 16.8872 14.677C17.3366 13.8563 17.572 12.9356 17.5715 11.9999C17.5715 10.2869 16.7983 8.7543 15.582 7.73215C13.0646 9.73487 10.374 11.8456 9.92061 12.1717C9.25804 12.6474 9.01632 12.3684 9.00004 12.0526ZM14.1429 17.144V12.857L9.28761 16.8676C10.1166 17.3305 11.0506 17.5728 12 17.5713C12.7595 17.5713 13.4829 17.4192 14.1429 17.1444V17.144ZM8.58518 17.4474C9.60803 18.0902 10.792 18.4304 12 18.4284C15.5503 18.4284 18.4286 15.5502 18.4286 11.9999C18.4286 10.0854 17.5916 8.36644 16.2643 7.18872C17.1716 6.46444 18.0258 5.77872 18.7068 5.22501C18.8203 5.09644 18.9793 4.76215 18.7068 4.45358C18.4342 4.14501 17.9868 4.32501 17.7978 4.45358L15.306 6.48544C14.3078 5.88553 13.1647 5.56945 12 5.5713C8.44975 5.5713 5.57147 8.44958 5.57147 11.9999C5.57147 13.9109 6.40504 15.6269 7.72889 16.8042C6.82889 17.543 5.97775 18.2399 5.29332 18.7979C5.17975 18.9264 5.02075 19.2612 5.29332 19.5702C5.55604 19.868 5.91261 19.6246 6.10761 19.4913L6.12904 19.4767L8.58518 17.4474ZM9.85718 10.9284V6.8553C10.5362 6.57256 11.2645 6.42746 12 6.42844C12.936 6.42844 13.818 6.65944 14.5929 7.06701L9.85718 10.9284Z" fill="white"/>
</g>
<defs>
<clipPath id="clip0_31_21191">
<rect width="24" height="24" fill="white"/>
</clipPath>
</defs>
</svg>

<svg xmlns="http://www.w3.org/2000/svg" width="24" height="24" fill="none" viewBox="0 0 24 24"><g clip-path="url(#a)"><path fill="#1741C3" d="M0 0h24v24H0z"/><path fill="#fff" fill-rule="evenodd" d="M9 12.053V7.304A5.57 5.57 0 0 0 6.429 12c0 1.705.765 3.231 1.972 4.253l.06-.05c2.458-2.016 5.04-4.135 5.49-4.458.501-.36 1.033-.104 1.049.212v4.738A5.57 5.57 0 0 0 17.572 12a5.56 5.56 0 0 0-1.99-4.268c-2.517 2.003-5.208 4.114-5.661 4.44-.663.475-.905.196-.921-.12m5.143 5.091v-4.287l-4.855 4.01a5.55 5.55 0 0 0 2.712.704 5.6 5.6 0 0 0 2.143-.427m-5.558.303a6.429 6.429 0 0 0 7.68-10.259c.907-.724 1.76-1.41 2.442-1.963.113-.129.272-.463 0-.771-.273-.309-.72-.129-.91 0l-2.491 2.031a6.429 6.429 0 0 0-7.577 10.319c-.9.739-1.751 1.436-2.436 1.994-.113.128-.272.463 0 .772.263.298.62.055.815-.079l.021-.014zm1.272-6.519V6.855A5.6 5.6 0 0 1 12 6.428c.936 0 1.818.231 2.593.639z" clip-rule="evenodd"/></g><defs><clipPath id="a"><path fill="#fff" d="M0 0h24v24H0z"/></clipPath></defs></svg>
